X:1
T:Herre, Jeg Har Handlet Ille, 87.87.88
T:Herre, Jeg Har Handlet Ille, 87.87.88
T:Ludvig Mathias Lindeman, 1871
T:Public Domain Courtesy of the Cyber Hymnal™
C:Ludvig Mathias Lindeman, 1871
Z:Public Domain
Z:Courtesy of the Cyber Hymnal™
%%score ( 1 2 ) ( 3 4 )
L:1/8
Q:1/4=110
M:4/4
K:F
V:1 treble 
V:2 treble 
V:3 bass 
V:4 bass 
V:1
 [^CA]2 [A,G]2 | [A,F]3 D [FB]2 [FA]2 | [EA]2 [EG]2 F2 [EG]2 | [FA]3 [Fc] [FG]2 [EA]2 | %4
 [CF]4 [FA]2 [EG]2 | [CF]3 D [^CB]2 [DA]2 | [FA]2 [EG]2 F2 [EG]2 | [FA]3 [Cc] [B,G]2 [CA]2 | %8
 [A,F]4 [^CA]2 [DA]2 | E3 [DF] [DG]2 [EG]2 | [DF]2 [^CE]2 [EA]2 [EA]2 | [Dd]3 [EA] [A,F]2 D2 | E8 | %13
 !fermata!D4 |] %14
V:2
 x4 | x3 D x4 | x4 F2 x2 | x8 | x8 | x3 D x4 | x4 F2 x2 | x8 | x8 | E3 x5 | x8 | x6 D2 | (D4 ^C4) | %13
 D4 |] %14
V:3
 [A,,E,]2 [^C,E,]2 | [D,F,]3 [F,A,] [D,F,]2 [C,C]2 | [B,,C]2 [B,,C]2 [A,,C]2 [G,,B,]2 | %3
 [F,,A,]3 [A,,F,] [B,,D]2 [C,C]2 | [F,A,]4 [F,,A,]2 [G,,B,]2 | [A,,C]3 [B,,F,] [G,,E,]2 [F,,A,]2 | %6
 [G,,B,]2 [G,,B,]2 [A,,C]2 [G,,B,]2 | [F,,A,]3 [A,,F,] [C,E,]2 [C,E,]2 | F,4 [E,G,]2 [D,F,]2 | %9
 [^C,A,]3 [D,A,] [B,,D,]2 [G,,B,]2 | [A,,A,]2 [A,,A,]2 [A,^C]2 [G,C]2 | %11
 [F,A,]3 [^C,E,] [D,F,]2 [B,,F,]2 | ([G,,B,]4 [A,,G,]4) | !fermata![D,F,]4 |] %14
V:4
 x4 | x8 | x8 | x8 | x8 | x8 | x8 | x8 | F,4 x4 | x8 | x8 | x8 | x8 | x4 |] %14

